; G-Code generated by Simplify3D(R) Version 3.0.0
; may. 31, 2019 at 3:49:34 P. M.
; Settings Summary
;   processName,Process1
;   applyToModels,moldedfb11
;   profileName,1.75 ABS - Printalot
;   profileVersion,2019-05-31 11:02:33
;   baseProfile,Default
;   printMaterial,PLA
;   printQuality,Medium
;   printExtruders,
;   extruderName,Extruder 1
;   extruderToolheadNumber,0
;   extruderDiameter,0.4
;   extruderAutoWidth,0
;   extruderWidth,0.4
;   extrusionMultiplier,0.91
;   extruderUseRetract,1
;   extruderRetractionDistance,4
;   extruderExtraRestartDistance,0
;   extruderRetractionZLift,0.15
;   extruderRetractionSpeed,1200
;   extruderUseCoasting,0
;   extruderCoastingDistance,0.2
;   extruderUseWipe,0
;   extruderWipeDistance,5
;   primaryExtruder,0
;   layerHeight,0.2
;   topSolidLayers,3
;   bottomSolidLayers,3
;   perimeterOutlines,3
;   printPerimetersInsideOut,1
;   startPointOption,2
;   startPointOriginX,0
;   startPointOriginY,0
;   startPointOriginZ,300
;   sequentialIslands,0
;   spiralVaseMode,0
;   firstLayerHeightPercentage,100
;   firstLayerWidthPercentage,115
;   firstLayerUnderspeed,0.5
;   useRaft,0
;   raftExtruder,0
;   raftLayers,3
;   raftOffset,3
;   raftSeparationDistance,0.14
;   raftInfill,85
;   disableRaftBaseLayers,0
;   useSkirt,1
;   skirtExtruder,999
;   skirtLayers,1
;   skirtOutlines,4
;   skirtOffset,4
;   usePrimePillar,0
;   primePillarExtruder,999
;   primePillarWidth,12
;   primePillarLocation,7
;   primePillarSpeedMultiplier,1
;   useOozeShield,0
;   oozeShieldExtruder,999
;   oozeShieldOffset,2
;   oozeShieldOutlines,1
;   oozeShieldSidewallShape,1
;   oozeShieldSidewallAngle,30
;   oozeShieldSpeedMultiplier,1
;   infillExtruder,0
;   internalInfillPattern,Rectilinear
;   externalInfillPattern,Rectilinear
;   infillPercentage,15
;   outlineOverlapPercentage,30
;   infillExtrusionWidthPercentage,100
;   minInfillLength,5
;   infillLayerInterval,1
;   infillAngles,45,-45
;   overlapInfillAngles,0
;   generateSupport,0
;   supportExtruder,0
;   supportInfillPercentage,40
;   supportExtraInflation,0
;   denseSupportLayers,1
;   denseSupportInfillPercentage,70
;   supportLayerInterval,1
;   supportHorizontalPartOffset,0.35
;   supportUpperSeparationLayers,2
;   supportLowerSeparationLayers,2
;   supportType,0
;   supportGridSpacing,4
;   maxOverhangAngle,45
;   supportAngles,0
;   temperatureName,Extrusor 1,Cama
;   temperatureNumber,0,1
;   temperatureSetpointCount,2,1
;   temperatureSetpointLayers,1,10,1
;   temperatureSetpointTemperatures,240,230,110
;   temperatureStabilizeAtStartup,1,1
;   temperatureHeatedBed,0,0
;   temperatureRelayBetweenLayers,0,0
;   temperatureRelayBetweenLoops,0,0
;   fanLayers,1
;   fanSpeeds,0
;   blipFanToFullPower,0
;   adjustSpeedForCooling,1
;   minSpeedLayerTime,12
;   minCoolingSpeedSlowdown,20
;   increaseFanForCooling,0
;   minFanLayerTime,45
;   maxCoolingFanSpeed,100
;   increaseFanForBridging,0
;   bridgingFanSpeed,100
;   use5D,1
;   relativeEdistances,0
;   allowEaxisZeroing,1
;   independentExtruderAxes,0
;   includeM10123,0
;   stickySupport,1
;   applyToolheadOffsets,0
;   gcodeXoffset,0
;   gcodeYoffset,0
;   gcodeZoffset,0
;   overrideMachineDefinition,1
;   machineTypeOverride,0
;   strokeXoverride,180
;   strokeYoverride,180
;   strokeZoverride,200
;   originOffsetXoverride,0
;   originOffsetYoverride,0
;   originOffsetZoverride,0
;   homeXdirOverride,-1
;   homeYdirOverride,-1
;   homeZdirOverride,-1
;   flipXoverride,1
;   flipYoverride,-1
;   flipZoverride,1
;   toolheadOffsets,0,0|0,0|0,0|0,0|0,0|0,0
;   overrideFirmwareConfiguration,1
;   firmwareTypeOverride,RepRap (Marlin/Repetier/Sprinter)
;   GPXconfigOverride,r2
;   baudRateOverride,115200
;   overridePrinterModels,0
;   printerModelsOverride
;   startingGcode,G21; Set units to millimeters,G90; In absolute mode all coordinates,M82; E Absolute,M107; Turn off one of the fans,G28; Auto-home one or more axes,M190 S110 Wait for Bed Temperature ,M109 S240 Wait for Hotend Temperature ,M117 INTI - Imprimiendo...
;   layerChangeGcode,
;   retractionGcode,
;   toolChangeGcode,
;   endingGcode,M107;  Fan Off ,G91; In relative mode all coordinates,G1 Z10 E-5,M104 S0 ; turn off extruder,M140 S0 ; turn off bed,G28 X0  ; home X axis,G28 Y0  ; home Y axis,M84 ; disable motors
;   createX3G,0
;   celebration,0
;   celebrationSong,Random Song
;   createMB5G,0
;   postProcessing,
;   defaultSpeed,2100
;   outlineUnderspeed,0.5
;   solidInfillUnderspeed,0.8
;   supportUnderspeed,0.8
;   rapidXYspeed,4800
;   rapidZspeed,1002
;   minBridgingArea,50
;   bridgingExtraInflation,0
;   bridgingExtrusionMultiplier,1
;   bridgingSpeedMultiplier,1
;   filamentDiameter,1.75
;   filamentPricePerKg,46
;   filamentDensity,1.25
;   useMinPrintHeight,0
;   minPrintHeight,0
;   useMaxPrintHeight,0
;   maxPrintHeight,0
;   useDiaphragm,0
;   diaphragmLayerInterval,20
;   robustSlicing,1
;   mergeAllIntoSolid,0
;   onlyRetractWhenCrossingOutline,1
;   retractBetweenLayers,1
;   useRetractionMinTravel,0
;   retractionMinTravel,3
;   retractWhileWiping,0
;   onlyWipeOutlines,1
;   avoidCrossingOutline,0
;   maxMovementDetourFactor,3
;   toolChangeRetractionDistance,12
;   toolChangeExtraRestartDistance,-0.5
;   toolChangeRetractionSpeed,600
;   allowThinWallGapFill,1
;   thinWallAllowedOverlapPercentage,10
;   horizontalSizeCompensation,0
G90
M82
M106 S0
M104 S240 T0
M109 S240 T0
M104 S110 T1
M109 S110 T1
G21; Set units to millimeters
G90; In absolute mode all coordinates
M82; E Absolute
M107; Turn off one of the fans
G28; Auto-home one or more axes
M190 S110 Wait for Bed Temperature 
M109 S240 Wait for Hotend Temperature 
M117 INTI - Imprimiendo...
G92 E0
G1 E-4.0000 F1200
G1 Z0.350 F1002
; layer 1, Z = 0.2
T0
; tool H0.200 W0.460
; skirt
G1 X57.086 Y58.251 F4800
G1 Z0.200 F1002
G1 E0.0000 F360
G92 E0
G1 X58.251 Y57.086 E0.0573 F1050
G1 X58.309 Y57.033 E0.0601
G1 X58.722 Y56.704 E0.0784
G1 X58.786 Y56.659 E0.0812
G1 X60.181 Y55.782 E0.1385
G1 X60.250 Y55.744 E0.1413
G1 X60.725 Y55.515 E0.1596
G1 X60.798 Y55.485 E0.1624
G1 X62.353 Y54.941 E0.2197
G1 X62.428 Y54.919 E0.2224
G1 X62.943 Y54.802 E0.2408
G1 X63.021 Y54.789 E0.2436
G1 X64.526 Y54.619 E0.2963
G1 X64.566 Y54.616 E0.2977
G1 X64.829 Y54.601 E0.3068
G1 X64.868 Y54.600 E0.3082
G1 X115.132 Y54.600 E2.0577
G1 X115.171 Y54.601 E2.0591
G1 X115.434 Y54.616 E2.0683
G1 X115.474 Y54.619 E2.0696
G1 X116.979 Y54.789 E2.1224
G1 X117.057 Y54.802 E2.1251
G1 X117.572 Y54.919 E2.1435
G1 X117.647 Y54.941 E2.1462
G1 X119.202 Y55.485 E2.2036
G1 X119.275 Y55.515 E2.2063
G1 X119.750 Y55.744 E2.2247
G1 X119.819 Y55.782 E2.2274
G1 X121.214 Y56.659 E2.2848
G1 X121.278 Y56.704 E2.2875
G1 X121.691 Y57.033 E2.3059
G1 X121.749 Y57.086 E2.3086
G1 X122.914 Y58.251 E2.3659
G1 X122.966 Y58.309 E2.3687
G1 X123.296 Y58.722 E2.3870
G1 X123.341 Y58.786 E2.3898
G1 X124.218 Y60.181 E2.4471
G1 X124.256 Y60.250 E2.4499
G1 X124.485 Y60.725 E2.4682
G1 X124.515 Y60.798 E2.4710
G1 X125.059 Y62.353 E2.5283
G1 X125.081 Y62.428 E2.5310
G1 X125.198 Y62.943 E2.5494
G1 X125.211 Y63.021 E2.5522
G1 X125.381 Y64.526 E2.6049
G1 X125.384 Y64.566 E2.6063
G1 X125.399 Y64.829 E2.6154
G1 X125.400 Y64.868 E2.6168
G1 X125.400 Y115.132 E4.3663
G1 X125.399 Y115.171 E4.3677
G1 X125.384 Y115.434 E4.3769
G1 X125.381 Y115.474 E4.3782
G1 X125.211 Y116.979 E4.4310
G1 X125.198 Y117.057 E4.4337
G1 X125.081 Y117.572 E4.4521
G1 X125.059 Y117.647 E4.4548
G1 X124.515 Y119.202 E4.5122
G1 X124.485 Y119.275 E4.5149
G1 X124.256 Y119.750 E4.5333
G1 X124.218 Y119.819 E4.5360
G1 X123.341 Y121.214 E4.5934
G1 X123.296 Y121.278 E4.5961
G1 X122.967 Y121.691 E4.6145
G1 X122.914 Y121.749 E4.6172
G1 X121.749 Y122.914 E4.6745
G1 X121.691 Y122.966 E4.6773
G1 X121.278 Y123.296 E4.6956
G1 X121.214 Y123.341 E4.6984
G1 X119.819 Y124.218 E4.7557
G1 X119.750 Y124.256 E4.7585
G1 X119.275 Y124.485 E4.7768
G1 X119.202 Y124.515 E4.7796
G1 X117.647 Y125.059 E4.8369
G1 X117.572 Y125.081 E4.8396
G1 X117.057 Y125.198 E4.8580
G1 X116.979 Y125.211 E4.8608
G1 X115.474 Y125.381 E4.9135
G1 X115.434 Y125.384 E4.9149
G1 X115.171 Y125.399 E4.9240
G1 X115.132 Y125.400 E4.9254
G1 X64.868 Y125.400 E6.6749
G1 X64.829 Y125.399 E6.6763
G1 X64.566 Y125.384 E6.6855
G1 X64.526 Y125.381 E6.6868
G1 X63.021 Y125.211 E6.7396
G1 X62.943 Y125.198 E6.7423
G1 X62.428 Y125.081 E6.7607
G1 X62.353 Y125.059 E6.7634
G1 X60.798 Y124.515 E6.8208
G1 X60.725 Y124.485 E6.8235
G1 X60.250 Y124.256 E6.8419
G1 X60.181 Y124.218 E6.8446
G1 X58.786 Y123.341 E6.9020
G1 X58.722 Y123.296 E6.9047
G1 X58.309 Y122.966 E6.9231
G1 X58.251 Y122.914 E6.9258
G1 X57.086 Y121.749 E6.9831
G1 X57.033 Y121.691 E6.9859
G1 X56.704 Y121.278 E7.0042
G1 X56.659 Y121.214 E7.0070
G1 X55.782 Y119.819 E7.0643
G1 X55.744 Y119.750 E7.0671
G1 X55.515 Y119.275 E7.0854
G1 X55.485 Y119.202 E7.0882
G1 X54.941 Y117.647 E7.1455
G1 X54.919 Y117.572 E7.1482
G1 X54.802 Y117.057 E7.1666
G1 X54.789 Y116.979 E7.1694
G1 X54.619 Y115.474 E7.2221
G1 X54.616 Y115.434 E7.2235
G1 X54.601 Y115.171 E7.2326
G1 X54.600 Y115.132 E7.2340
G1 X54.600 Y64.868 E8.9835
G1 X54.601 Y64.829 E8.9849
G1 X54.616 Y64.566 E8.9941
G1 X54.619 Y64.526 E8.9954
G1 X54.789 Y63.021 E9.0482
G1 X54.802 Y62.943 E9.0509
G1 X54.919 Y62.428 E9.0693
G1 X54.941 Y62.353 E9.0720
G1 X55.485 Y60.798 E9.1294
G1 X55.515 Y60.725 E9.1321
G1 X55.744 Y60.250 E9.1505
G1 X55.782 Y60.181 E9.1532
G1 X56.659 Y58.786 E9.2106
G1 X56.704 Y58.722 E9.2133
G1 X57.033 Y58.309 E9.2317
G1 X57.086 Y58.251 E9.2344
; skirt
G1 X57.377 Y58.526 F4800
G92 E0
G1 X58.526 Y57.377 E0.0566 F1050
G1 X58.568 Y57.339 E0.0585
G1 X58.963 Y57.024 E0.0761
G1 X59.008 Y56.992 E0.0781
G1 X60.384 Y56.127 E0.1346
G1 X60.434 Y56.100 E0.1366
G1 X60.889 Y55.881 E0.1542
G1 X60.941 Y55.859 E0.1561
G1 X62.475 Y55.322 E0.2127
G1 X62.528 Y55.307 E0.2146
G1 X63.021 Y55.194 E0.2322
G1 X63.076 Y55.185 E0.2342
G1 X64.566 Y55.017 E0.2863
G1 X64.594 Y55.015 E0.2873
G1 X64.846 Y55.001 E0.2961
G1 X64.874 Y55.000 E0.2971
G1 X115.126 Y55.000 E2.0462
G1 X115.154 Y55.001 E2.0472
G1 X115.406 Y55.015 E2.0560
G1 X115.434 Y55.017 E2.0569
G1 X116.924 Y55.185 E2.1091
G1 X116.979 Y55.194 E2.1111
G1 X117.472 Y55.307 E2.1287
G1 X117.525 Y55.322 E2.1306
G1 X119.059 Y55.859 E2.1872
G1 X119.111 Y55.881 E2.1891
G1 X119.566 Y56.100 E2.2067
G1 X119.616 Y56.127 E2.2087
G1 X120.992 Y56.992 E2.2652
G1 X121.037 Y57.024 E2.2672
G1 X121.432 Y57.339 E2.2848
G1 X121.474 Y57.377 E2.2867
G1 X122.623 Y58.526 E2.3433
G1 X122.661 Y58.568 E2.3452
G1 X122.976 Y58.963 E2.3628
G1 X123.008 Y59.008 E2.3648
G1 X123.873 Y60.384 E2.4213
G1 X123.900 Y60.433 E2.4233
G1 X124.119 Y60.889 E2.4409
G1 X124.141 Y60.941 E2.4428
G1 X124.678 Y62.474 E2.4994
G1 X124.693 Y62.528 E2.5014
G1 X124.806 Y63.021 E2.5189
G1 X124.815 Y63.076 E2.5209
G1 X124.983 Y64.566 E2.5731
G1 X124.985 Y64.594 E2.5740
G1 X124.999 Y64.846 E2.5828
G1 X125.000 Y64.874 E2.5838
G1 X125.000 Y115.126 E4.3329
G1 X124.999 Y115.154 E4.3339
G1 X124.985 Y115.406 E4.3427
G1 X124.983 Y115.434 E4.3437
G1 X124.815 Y116.924 E4.3958
G1 X124.806 Y116.979 E4.3978
G1 X124.693 Y117.472 E4.4154
G1 X124.678 Y117.525 E4.4173
G1 X124.141 Y119.059 E4.4739
G1 X124.119 Y119.111 E4.4758
G1 X123.900 Y119.567 E4.4934
G1 X123.873 Y119.616 E4.4954
G1 X123.008 Y120.992 E4.5520
G1 X122.976 Y121.037 E4.5539
G1 X122.661 Y121.432 E4.5715
G1 X122.623 Y121.474 E4.5734
G1 X121.474 Y122.623 E4.6300
G1 X121.432 Y122.661 E4.6320
G1 X121.037 Y122.976 E4.6496
G1 X120.992 Y123.008 E4.6515
G1 X119.616 Y123.873 E4.7081
G1 X119.567 Y123.900 E4.7100
G1 X119.111 Y124.119 E4.7276
G1 X119.059 Y124.141 E4.7296
G1 X117.525 Y124.678 E4.7861
G1 X117.472 Y124.693 E4.7881
G1 X116.979 Y124.806 E4.8057
G1 X116.924 Y124.815 E4.8076
G1 X115.434 Y124.983 E4.8598
G1 X115.406 Y124.985 E4.8608
G1 X115.154 Y124.999 E4.8696
G1 X115.126 Y125.000 E4.8705
G1 X64.874 Y125.000 E6.6197
G1 X64.846 Y124.999 E6.6206
G1 X64.594 Y124.985 E6.6294
G1 X64.566 Y124.983 E6.6304
G1 X63.076 Y124.815 E6.6826
G1 X63.021 Y124.806 E6.6845
G1 X62.528 Y124.693 E6.7021
G1 X62.474 Y124.678 E6.7041
G1 X60.941 Y124.141 E6.7606
G1 X60.889 Y124.119 E6.7626
G1 X60.433 Y123.900 E6.7802
G1 X60.384 Y123.873 E6.7821
G1 X59.008 Y123.008 E6.8387
G1 X58.963 Y122.976 E6.8406
G1 X58.568 Y122.661 E6.8582
G1 X58.526 Y122.623 E6.8602
G1 X57.377 Y121.474 E6.9167
G1 X57.339 Y121.432 E6.9187
G1 X57.024 Y121.037 E6.9363
G1 X56.992 Y120.992 E6.9382
G1 X56.127 Y119.616 E6.9948
G1 X56.100 Y119.567 E6.9967
G1 X55.881 Y119.111 E7.0143
G1 X55.859 Y119.059 E7.0163
G1 X55.322 Y117.525 E7.0729
G1 X55.307 Y117.472 E7.0748
G1 X55.194 Y116.979 E7.0924
G1 X55.185 Y116.924 E7.0944
G1 X55.017 Y115.434 E7.1465
G1 X55.015 Y115.406 E7.1475
G1 X55.001 Y115.154 E7.1563
G1 X55.000 Y115.126 E7.1573
G1 X55.000 Y64.874 E8.9064
G1 X55.001 Y64.846 E8.9074
G1 X55.015 Y64.594 E8.9161
G1 X55.017 Y64.566 E8.9171
G1 X55.185 Y63.076 E8.9693
G1 X55.194 Y63.021 E8.9712
G1 X55.307 Y62.528 E8.9888
G1 X55.322 Y62.474 E8.9908
G1 X55.859 Y60.941 E9.0473
G1 X55.881 Y60.889 E9.0493
G1 X56.100 Y60.433 E9.0669
G1 X56.127 Y60.384 E9.0688
G1 X56.992 Y59.008 E9.1254
G1 X57.024 Y58.963 E9.1274
G1 X57.339 Y58.568 E9.1449
G1 X57.377 Y58.526 E9.1469
; skirt
G1 X57.667 Y58.801 F4800
G92 E0
G1 X58.801 Y57.667 E0.0558 F1050
G1 X58.826 Y57.645 E0.0570
G1 X59.203 Y57.344 E0.0738
G1 X59.231 Y57.324 E0.0749
G1 X60.588 Y56.472 E0.1307
G1 X60.617 Y56.455 E0.1319
G1 X61.052 Y56.246 E0.1487
G1 X61.083 Y56.233 E0.1499
G1 X62.596 Y55.704 E0.2056
G1 X62.628 Y55.694 E0.2068
G1 X63.099 Y55.587 E0.2236
G1 X63.132 Y55.581 E0.2248
G1 X64.605 Y55.415 E0.2764
G1 X64.622 Y55.414 E0.2770
G1 X64.863 Y55.400 E0.2854
G1 X64.879 Y55.400 E0.2859
G1 X115.121 Y55.400 E2.0347
G1 X115.137 Y55.400 E2.0353
G1 X115.378 Y55.414 E2.0437
G1 X115.395 Y55.415 E2.0443
G1 X116.868 Y55.581 E2.0958
G1 X116.901 Y55.587 E2.0970
G1 X117.372 Y55.694 E2.1138
G1 X117.404 Y55.704 E2.1150
G1 X118.917 Y56.233 E2.1708
G1 X118.948 Y56.246 E2.1719
G1 X119.383 Y56.455 E2.1887
G1 X119.412 Y56.472 E2.1899
G1 X120.769 Y57.324 E2.2457
G1 X120.797 Y57.344 E2.2469
G1 X121.174 Y57.645 E2.2637
G1 X121.199 Y57.667 E2.2648
G1 X122.333 Y58.801 E2.3206
G1 X122.355 Y58.826 E2.3218
G1 X122.656 Y59.203 E2.3386
G1 X122.676 Y59.231 E2.3398
G1 X123.528 Y60.588 E2.3956
G1 X123.545 Y60.617 E2.3967
G1 X123.754 Y61.052 E2.4135
G1 X123.767 Y61.083 E2.4147
G1 X124.296 Y62.596 E2.4705
G1 X124.306 Y62.628 E2.4717
G1 X124.413 Y63.099 E2.4885
G1 X124.419 Y63.132 E2.4897
G1 X124.585 Y64.605 E2.5412
G1 X124.586 Y64.622 E2.5418
G1 X124.600 Y64.863 E2.5502
G1 X124.600 Y64.879 E2.5508
G1 X124.600 Y115.121 E4.2995
G1 X124.600 Y115.137 E4.3001
G1 X124.586 Y115.378 E4.3085
G1 X124.585 Y115.395 E4.3091
G1 X124.419 Y116.868 E4.3607
G1 X124.413 Y116.901 E4.3618
G1 X124.306 Y117.372 E4.3787
G1 X124.296 Y117.404 E4.3798
G1 X123.767 Y118.917 E4.4356
G1 X123.754 Y118.948 E4.4368
G1 X123.545 Y119.383 E4.4536
G1 X123.528 Y119.412 E4.4548
G1 X122.676 Y120.769 E4.5105
G1 X122.656 Y120.797 E4.5117
G1 X122.355 Y121.174 E4.5285
G1 X122.333 Y121.199 E4.5297
G1 X121.199 Y122.333 E4.5855
G1 X121.174 Y122.355 E4.5867
G1 X120.797 Y122.656 E4.6035
G1 X120.769 Y122.676 E4.6046
G1 X119.412 Y123.528 E4.6604
G1 X119.383 Y123.545 E4.6616
G1 X118.948 Y123.754 E4.6784
G1 X118.917 Y123.767 E4.6796
G1 X117.404 Y124.296 E4.7353
G1 X117.372 Y124.306 E4.7365
G1 X116.901 Y124.413 E4.7533
G1 X116.868 Y124.419 E4.7545
G1 X115.395 Y124.585 E4.8061
G1 X115.378 Y124.586 E4.8067
G1 X115.137 Y124.600 E4.8151
G1 X115.121 Y124.600 E4.8156
G1 X64.879 Y124.600 E6.5644
G1 X64.863 Y124.600 E6.5650
G1 X64.622 Y124.586 E6.5734
